X: 24
T: Countess of Sutherland's Reel
%R: reel
B: Urbani & Liston "A Selection of Scotch, English Irish, and Foreign Airs", Edinburgh 1800, p.10
F: http://www.vwml.org/browse/browse-collections-dance-tune-books/browse-urbani1800
Z: 2014 John Chambers <jc:trillian.mit.edu>
M: C|
L: 1/8
K: D
f |\
d2Ad BdAd | GdFd Ee-ef |\
Td2Ad Bbag | faeg fd-d :|\
a/b//c'// |\
d'afa gbeg | fadf eA-Aa/b//c'// |
d'afa gbdg | afeg fdda/b//c'// |\
d'afa gbeg | fadf eAAa |\
Tb>abc' d'bag | faeg fd-d |]

%%sep 1 1 500
%%sep 1 1 500
